X: 20081
Q: "Slow"
M: C
L: 1/8
K: Am
E2 |\
{cd}e2G2 (c<A)(G<E) | {A}G4 z2c>B |\
{B}A>^GAB {d}c>Bcd |
{f}e>def e2a>g |\
{g}fedc c2TB>A | A6 :||: e>f |\
{a}g>fga {a}g2fe | (fe)(dc) {e}d2c>d |
{cd}e2G2 (c/B/A) (G/F/E) | G4 z2c>B |\
{B}A>^GAB {d}c>Bcd | {f}e>def {f}He2 a>g |\
{g}fe{e}dc c2TB>A | A6 :|


